assets/brand/haipay-logo.svg

<svg width="118" height="32" viewBox="0 0 118 32" fill="none" xmlns="http://www.w3.org/2000/svg">
<g clip-path="url(#clip0_2270_945)">
<mask id="mask0_2270_945" style="mask-type:luminance" maskUnits="userSpaceOnUse" x="0" y="0" width="118" height="32">
<path d="M117.945 0H0V31.9434H117.945V0Z" fill="white"/>
</mask>
<g mask="url(#mask0_2270_945)">
<path d="M7.86618 11.9784H15.8552V19.9643H7.86618V11.9784Z" fill="#7661AA"/>
<path d="M21.3472 11.9784H15.8552V19.9643H21.3472V11.9784Z" fill="#7661AA"/>
<path d="M0.0439148 0H8.03293V7.98586H0.0439148V0Z" fill="#7661AA"/>
<path d="M23.6774 0H31.6664V7.98586H23.6774V0Z" fill="#7661AA"/>
<path d="M0.0439148 23.9576H8.03293V31.9434H0.0439148V23.9576Z" fill="#7661AA"/>
<path d="M23.6774 23.9576H31.6664V31.9434H23.6774V23.9576Z" fill="#7661AA"/>
<path d="M0.0439148 15.9717H8.03293V23.9576H0.0439148V15.9717Z" fill="#7661AA"/>
<path d="M31.6664 22.2936H23.6774V23.9576H31.6664V22.2936Z" fill="#7661AA"/>
<path d="M31.6664 7.98586H23.6774V9.64911H31.6664V7.98586Z" fill="#7661AA"/>
<path d="M0.0439148 7.98586H8.03293V15.9717H0.0439148V7.98586Z" fill="#7661AA"/>
<path d="M32.8777 10.7676H22.4654V21.1758H32.8777V10.7676Z" fill="#69C5DF"/>
<path d="M0 11.9784H7.98901V19.9643H0V11.9784Z" fill="#332295"/>
<path d="M38.6385 25.2301C38.4613 25.2301 38.3102 25.1773 38.1858 25.0709C38.0615 24.9466 37.9997 24.7873 37.9997 24.5924V7.27962C37.9997 7.08465 38.0615 6.92539 38.1858 6.80111C38.3102 6.67683 38.4606 6.61507 38.6385 6.61507H41.0595C41.2546 6.61507 41.4057 6.67683 41.5122 6.80111C41.6365 6.92539 41.6983 7.08465 41.6983 7.27962V14.1403H49.5466V7.27962C49.5466 7.08465 49.6084 6.92539 49.7327 6.80111C49.8571 6.67683 50.0074 6.61507 50.1854 6.61507H52.5796C52.7747 6.61507 52.934 6.67683 53.0583 6.80111C53.1826 6.92539 53.2444 7.08465 53.2444 7.27962V24.5916C53.2444 24.7687 53.1826 24.9198 53.0583 25.0433C52.934 25.1669 52.7747 25.2294 52.5796 25.2294H50.1854C50.0082 25.2294 49.8571 25.1676 49.7327 25.0433C49.6084 24.9191 49.5466 24.7687 49.5466 24.5916V17.4646H41.6983V24.5916C41.6983 24.7687 41.6365 24.9198 41.5122 25.0433C41.4057 25.1676 41.2553 25.2294 41.0595 25.2294H38.6385V25.2301Z" fill="#7661AA"/>
<path d="M59.749 25.4958C58.8266 25.4958 57.9935 25.3187 57.2483 24.9637C56.503 24.5916 55.9089 24.1042 55.466 23.5014C55.0401 22.8807 54.8272 22.1894 54.8272 21.4274C54.8272 20.186 55.3238 19.2022 56.3169 18.4752C57.3279 17.7302 58.6583 17.2339 60.3073 16.986L63.9523 16.454V15.8958C63.9523 15.1509 63.7662 14.5749 63.3939 14.1671C63.0217 13.7593 62.3829 13.5554 61.4784 13.5554C60.8396 13.5554 60.317 13.6886 59.909 13.9542C59.5189 14.2028 59.2263 14.5392 59.0313 14.9648C58.8891 15.1955 58.6851 15.3109 58.4193 15.3109H56.3177C56.1226 15.3109 55.9715 15.258 55.865 15.1516C55.7764 15.0452 55.7317 14.9031 55.7317 14.726C55.7496 14.4424 55.865 14.0964 56.0779 13.6886C56.2909 13.2807 56.6281 12.8908 57.0889 12.5187C57.5498 12.1287 58.1439 11.8006 58.8712 11.5349C59.5986 11.2692 60.4763 11.136 61.5052 11.136C62.6227 11.136 63.5622 11.2781 64.3253 11.5617C65.1055 11.8274 65.7264 12.1913 66.1872 12.6519C66.6481 13.1126 66.9853 13.6536 67.1982 14.2742C67.4111 14.8949 67.5176 15.5505 67.5176 16.2419V24.5924C67.5176 24.7695 67.4558 24.9206 67.3315 25.0441C67.2072 25.1676 67.0568 25.2301 66.8788 25.2301H64.7243C64.5293 25.2301 64.3699 25.1684 64.2456 25.0441C64.1392 24.9198 64.0863 24.7695 64.0863 24.5924V23.555C63.8555 23.8921 63.5451 24.2106 63.155 24.512C62.7648 24.7955 62.2861 25.0352 61.7181 25.2301C61.1679 25.4073 60.5121 25.4958 59.7497 25.4958H59.749ZM60.6528 22.9693C61.2737 22.9693 61.832 22.8361 62.3286 22.5704C62.843 22.3047 63.2421 21.8969 63.5257 21.347C63.8272 20.7799 63.9776 20.0707 63.9776 19.2194V18.6612L61.3176 19.0869C60.2708 19.2461 59.4906 19.5036 58.9762 19.8579C58.4618 20.2121 58.2049 20.6467 58.2049 21.1609C58.2049 21.5509 58.3203 21.888 58.5511 22.1715C58.7997 22.4372 59.1095 22.6411 59.4824 22.7833C59.8547 22.9075 60.2448 22.9693 60.6528 22.9693Z" fill="#7661AA"/>
<path d="M70.2379 25.2301C70.0607 25.2301 69.9096 25.1684 69.7853 25.0441C69.6609 24.9198 69.5992 24.7695 69.5992 24.5924V12.0402C69.5992 11.8631 69.6609 11.712 69.7853 11.5877C69.9096 11.4634 70.06 11.4017 70.2379 11.4017H72.446C72.6411 11.4017 72.7922 11.4634 72.8987 11.5877C73.023 11.712 73.0848 11.8623 73.0848 12.0402V24.5924C73.0848 24.7695 73.023 24.9206 72.8987 25.0441C72.7922 25.1684 72.6418 25.2301 72.446 25.2301H70.2379Z" fill="#7661AA"/>
<path d="M70.1315 9.80614C69.9364 9.80614 69.7771 9.75256 69.6528 9.64688C69.5463 9.5226 69.4934 9.36335 69.4934 9.16837V7.25358C69.4934 7.07646 69.5463 6.92539 69.6528 6.80111C69.7771 6.67683 69.9364 6.61507 70.1315 6.61507H72.5525C72.7476 6.61507 72.9076 6.67683 73.0312 6.80111C73.1555 6.92539 73.2173 7.07572 73.2173 7.25358V9.16837C73.2173 9.36335 73.1555 9.52335 73.0312 9.64688C72.9069 9.7533 72.7476 9.80614 72.5525 9.80614H70.1315Z" fill="#69C5DF"/>
<path d="M76.4945 25.2301C76.3174 25.2301 76.1662 25.1684 76.0419 25.0441C75.9176 24.9198 75.8558 24.7695 75.8558 24.5924V7.27962C75.8558 7.08465 75.9176 6.92539 76.0419 6.80111C76.1662 6.67683 76.3166 6.61507 76.4945 6.61507H83.6244C85.0084 6.61507 86.2137 6.83683 87.2426 7.27962C88.2715 7.7053 89.0695 8.36093 89.6376 9.24725C90.2049 10.1157 90.4885 11.206 90.4885 12.518C90.4885 13.83 90.2049 14.947 89.6376 15.8154C89.0703 16.666 88.2722 17.3046 87.2426 17.7302C86.2145 18.1559 85.0084 18.3687 83.6244 18.3687H79.6608V24.5916C79.6608 24.7687 79.599 24.9198 79.4747 25.0433C79.369 25.1676 79.2171 25.2294 79.0228 25.2294H76.4953L76.4945 25.2301ZM79.6072 15.4173H83.4919C84.52 15.4173 85.3099 15.1777 85.8593 14.6992C86.4088 14.2028 86.6842 13.4757 86.6842 12.5187C86.6842 11.6324 86.4266 10.9232 85.9122 10.3911C85.3978 9.84111 84.5908 9.56651 83.4919 9.56651H79.6072V15.4173Z" fill="#7661AA"/>
<path d="M95.4743 25.4958C94.5519 25.4958 93.7188 25.3187 92.9736 24.9637C92.2291 24.5916 91.635 24.1042 91.1913 23.5014C90.7654 22.8807 90.5525 22.1894 90.5525 21.4274C90.5525 20.186 91.0491 19.2022 92.0422 18.4752C93.0532 17.7302 94.3829 17.2339 96.0326 16.986L99.6776 16.454V15.8958C99.6776 15.1509 99.4915 14.5749 99.1185 14.1671C98.7463 13.7593 98.1075 13.5554 97.203 13.5554C96.5642 13.5554 96.0408 13.6886 95.6329 13.9542C95.2428 14.2028 94.9502 14.5392 94.7551 14.9648C94.6129 15.1955 94.4089 15.3109 94.1432 15.3109H92.0415C91.8464 15.3109 91.6953 15.258 91.5896 15.1516C91.501 15.0452 91.4563 14.9031 91.4563 14.726C91.4742 14.4424 91.5896 14.0964 91.8025 13.6886C92.0154 13.2807 92.3519 12.8908 92.8135 12.5187C93.2743 12.1287 93.8684 11.8006 94.5958 11.5349C95.3232 11.2692 96.2009 11.136 97.2298 11.136C98.3472 11.136 99.2868 11.2781 100.049 11.5617C100.829 11.8274 101.451 12.1913 101.911 12.6519C102.373 13.1126 102.709 13.6536 102.922 14.2742C103.135 14.8949 103.241 15.5505 103.241 16.2419V24.5924C103.241 24.7695 103.179 24.9206 103.055 25.0441C102.931 25.1684 102.78 25.2301 102.603 25.2301H100.448C100.253 25.2301 100.094 25.1684 99.9695 25.0441C99.863 24.9198 99.8094 24.7695 99.8094 24.5924V23.555C99.5786 23.8921 99.2681 24.2106 98.8788 24.512C98.4879 24.7955 98.01 25.0352 97.4419 25.2301C96.8925 25.4073 96.2359 25.4958 95.4728 25.4958H95.4743ZM96.3788 22.9693C96.9997 22.9693 97.5581 22.8361 98.0546 22.5704C98.5691 22.3047 98.9674 21.8969 99.251 21.347C99.5525 20.7799 99.7037 20.0707 99.7037 19.2194V18.6612L97.0429 19.0869C95.9969 19.2461 95.2159 19.5036 94.7023 19.8579C94.1878 20.2121 93.9302 20.6467 93.9302 21.1609C93.9302 21.5509 94.0456 21.888 94.2764 22.1715C94.5243 22.4372 94.8348 22.6411 95.207 22.7833C95.5792 22.9075 95.9694 22.9693 96.3781 22.9693H96.3788Z" fill="#7661AA"/>
<path d="M107.462 30.2824C107.32 30.2824 107.196 30.2296 107.09 30.1232C106.983 30.0167 106.93 29.8925 106.93 29.7511V29.5382C106.947 29.4854 106.982 29.4139 107.035 29.3254L109.11 24.4056L104.002 12.3587C103.932 12.1816 103.896 12.0573 103.896 11.9866C103.914 11.8273 103.976 11.6941 104.082 11.5877C104.188 11.4634 104.321 11.4017 104.481 11.4017H106.636C106.849 11.4017 107.008 11.4553 107.115 11.5609C107.221 11.6673 107.301 11.7827 107.354 11.907L110.892 20.6028L114.537 11.907C114.59 11.7648 114.67 11.6502 114.776 11.5609C114.882 11.4545 115.042 11.4017 115.255 11.4017H117.384C117.526 11.4017 117.649 11.4553 117.756 11.5609C117.88 11.6673 117.942 11.7916 117.942 11.933C117.942 12.0394 117.906 12.1816 117.835 12.3587L110.307 29.7771C110.236 29.9193 110.146 30.0339 110.041 30.1232C109.934 30.2296 109.775 30.2824 109.562 30.2824H107.46H107.462Z" fill="#7661AA"/>
</g>
</g>
<defs>
<clipPath id="clip0_2270_945">
<rect width="118" height="32" fill="white"/>
</clipPath>
</defs>
</svg>

<svg xmlns="http://www.w3.org/2000/svg" width="118" height="32" fill="none" viewBox="0 0 118 32"><g clip-path="url(#a)"><mask id="b" width="118" height="32" x="0" y="0" maskUnits="userSpaceOnUse" style="mask-type:luminance"><path fill="#fff" d="M117.945 0H0v31.943h117.945z"/></mask><g mask="url(#b)"><path fill="#7661aa" d="M7.866 11.978h7.99v7.986h-7.99z"/><path fill="#7661aa" d="M21.347 11.978h-5.492v7.986h5.492zM.044 0h7.989v7.986H.043zm23.633 0h7.99v7.986h-7.99zM.044 23.958h7.989v7.985H.043zm23.633 0h7.99v7.985h-7.99zM.044 15.972h7.989v7.986H.043z"/><path fill="#7661aa" d="M31.666 22.294h-7.989v1.664h7.99zm0-14.308h-7.989v1.663h7.99zm-31.622 0h7.989v7.986H.043z"/><path fill="#69c5df" d="M32.878 10.768H22.465v10.408h10.413z"/><path fill="#332295" d="M0 11.978h7.989v7.986H0z"/><path fill="#7661aa" d="M38.639 25.23a.67.67 0 0 1-.453-.16.65.65 0 0 1-.186-.478V7.28q0-.293.186-.479a.62.62 0 0 1 .453-.186h2.42q.294 0 .453.186a.65.65 0 0 1 .186.479v6.86h7.849V7.28q0-.293.186-.479a.62.62 0 0 1 .452-.186h2.395q.292 0 .478.186a.65.65 0 0 1 .186.479v17.312a.6.6 0 0 1-.186.451.65.65 0 0 1-.478.186h-2.395a.62.62 0 0 1-.452-.186.6.6 0 0 1-.186-.451v-7.127h-7.849v7.127a.6.6 0 0 1-.186.451q-.159.187-.453.186zm21.11.266q-1.383 0-2.5-.532-1.119-.558-1.783-1.463a3.6 3.6 0 0 1-.639-2.074q0-1.861 1.49-2.952 1.516-1.117 3.99-1.489l3.645-.532v-.558q0-1.117-.558-1.729t-1.916-.612q-.957 0-1.569.4-.585.371-.878 1.01a.68.68 0 0 1-.612.346h-2.101q-.292 0-.453-.16a.64.64 0 0 1-.133-.425q.027-.426.346-1.037.32-.612 1.01-1.17.693-.585 1.783-.984 1.091-.399 2.634-.399 1.676 0 2.82.426 1.17.399 1.862 1.09t1.011 1.622.32 1.968v8.35a.6.6 0 0 1-.186.452.62.62 0 0 1-.453.186h-2.155a.65.65 0 0 1-.478-.186.67.67 0 0 1-.16-.452v-1.037a4.3 4.3 0 0 1-.931.957q-.585.426-1.437.718-.825.266-1.968.266zm.904-2.527q.93 0 1.676-.399a2.75 2.75 0 0 0 1.197-1.223q.452-.85.452-2.128v-.558l-2.66.426q-1.57.24-2.342.77-.771.533-.771 1.304 0 .585.346 1.01.373.399.931.612.56.186 1.17.186m9.586 2.261a.62.62 0 0 1-.453-.186.6.6 0 0 1-.186-.452V12.04q0-.266.186-.452a.62.62 0 0 1 .453-.186h2.208q.292 0 .453.186a.62.62 0 0 1 .186.452v12.552a.6.6 0 0 1-.186.452q-.16.186-.453.186z"/><path fill="#69c5df" d="M70.132 9.806a.7.7 0 0 1-.48-.16.7.7 0 0 1-.159-.478V7.254q0-.267.16-.453a.65.65 0 0 1 .478-.186h2.421q.294 0 .48.186a.62.62 0 0 1 .185.453v1.914a.65.65 0 0 1-.186.479.7.7 0 0 1-.479.16z"/><path fill="#7661aa" d="M76.495 25.23a.62.62 0 0 1-.453-.186.6.6 0 0 1-.186-.452V7.28q0-.293.186-.479a.62.62 0 0 1 .453-.186h7.13q2.075 0 3.618.665 1.543.637 2.395 1.967.85 1.303.85 3.271c0 1.312-.283 2.429-.85 3.297q-.852 1.277-2.395 1.915t-3.619.639h-3.963v6.223a.6.6 0 0 1-.186.451q-.16.187-.452.186zm3.112-9.813h3.885q1.543 0 2.367-.718.825-.744.825-2.18 0-1.33-.772-2.128-.771-.825-2.42-.824h-3.885zm15.867 10.079q-1.383 0-2.5-.532-1.117-.558-1.783-1.463a3.6 3.6 0 0 1-.639-2.074q0-1.861 1.49-2.952 1.516-1.117 3.99-1.489l3.646-.532v-.558q0-1.117-.56-1.729-.558-.612-1.915-.612-.958 0-1.57.4-.585.371-.878 1.01a.68.68 0 0 1-.612.346h-2.102q-.293 0-.451-.16a.64.64 0 0 1-.134-.425q.028-.426.346-1.037.32-.612 1.011-1.17.691-.585 1.783-.984 1.09-.399 2.634-.399 1.676 0 2.819.426 1.171.399 1.862 1.09t1.011 1.622.319 1.968v8.35a.6.6 0 0 1-.186.452.62.62 0 0 1-.452.186h-2.155a.65.65 0 0 1-.478-.186.67.67 0 0 1-.16-.452v-1.037q-.347.505-.931.957a5.4 5.4 0 0 1-1.437.718q-.825.266-1.97.266zm.905-2.527q.931 0 1.676-.399.77-.398 1.196-1.223.452-.85.453-2.128v-.558l-2.661.426q-1.57.24-2.34.77-.773.533-.773 1.304 0 .585.346 1.01.373.399.931.612.558.186 1.171.186m11.084 7.313a.5.5 0 0 1-.372-.159.5.5 0 0 1-.16-.372v-.213q.025-.08.105-.213l2.075-4.92-5.108-12.046q-.106-.266-.106-.372a.65.65 0 0 1 .186-.4.5.5 0 0 1 .399-.185h2.155q.319 0 .479.159.16.16.239.346l3.538 8.696 3.645-8.696a.8.8 0 0 1 .239-.346q.16-.16.479-.16h2.129q.212 0 .372.16.186.159.186.372 0 .16-.107.426l-7.528 17.418a1.1 1.1 0 0 1-.266.346q-.16.16-.479.16h-2.102z"/></g></g><defs><clipPath id="a"><path fill="#fff" d="M0 0h118v32H0z"/></clipPath></defs></svg>
